public/svg/barn.svg

<svg xmlns="http://www.w3.org/2000/svg" width="56" height="56" viewBox="0 0 56 56" fill="none">
<path d="M7 48.9999V18.6666L28 9.33325L49 18.6666V48.9999" stroke="#1B5BF7" stroke-width="3.5" stroke-linecap="round" stroke-linejoin="round"/>
<path d="M30.333 30.3333H34.9997H39.6663V48.9999H16.333V34.9999H23.333H30.333" stroke="#1B5BF7" stroke-width="3.5" stroke-linecap="round" stroke-linejoin="round"/>
<path d="M30.3333 49.0001V28.0001C30.3333 27.3812 30.0875 26.7878 29.6499 26.3502C29.2123 25.9126 28.6188 25.6667 28 25.6667H23.3333C22.7145 25.6667 22.121 25.9126 21.6834 26.3502C21.2458 26.7878 21 27.3812 21 28.0001V35.0001" stroke="#1B5BF7" stroke-width="3.5" stroke-linecap="round" stroke-linejoin="round"/>
</svg>

<svg xmlns="http://www.w3.org/2000/svg" width="56" height="56" fill="none" stroke="#1b5bf7" stroke-width="3.5" stroke-linecap="round" stroke-linejoin="round" xmlns:v="https://vecta.io/nano"><path d="M7 49V18.667l21-9.333 21 9.333V49M30.333 30.333H35h4.667V49H16.333V35h14"/><path d="M30.333 49V28c0-.619-.246-1.212-.683-1.65s-1.031-.684-1.65-.684h-4.667c-.619 0-1.212.246-1.65.684S21 27.381 21 28v7"/></svg>
